X: 38715
T: Streams Of Lovely Nancy, The
R: waltz
M: 3/4
K: Dmajor
(3 ABc|d2 e2 A>G|G2 F2 F>G|A2 d2 e2|d4 d>e|
f2 a2 f>d|e>f g2 a>f|d2 c2 B2|A4 d>f|
f2 a2 f>d|e>f g2 a>f|d2 A2 f>g|a2 f2 g>e|
d2 e2 A>G|F2 G2 F>G|A2 d2 e2|d4||

